X:1
T:Title
%%score { ( 1 3 ) | ( 2 4 5 ) }
L:1/8
M:4/4
K:G
V:1 treble nm="Grand Piano"
V:3 treble 
V:2 bass 
V:4 bass 
V:5 bass 
V:1
 z4 z[Q:1/4=92] DEF | G6 z2 | z B,CC B,GFG | c6 z2 | B6 z2 | z DE^D =Dded | G6 z2 | B6 z/ A3/2 | %8
[M:3/4] G6 |[M:1/4] d2 |[M:4/4] [Fd]>[DF] z C C2 [Fd]2 |[M:3/4] z2 G4 |[M:1/4] B2 | %13
[M:4/4] z2 [^DF]4 z2 |[M:17/16] [^DB]/-[DB]/-[DB]/-[DB]/-[DB]-<[DB][=Dd]3/2DEF | %15
[M:4/4] z DE^D =Dded | G6 z2 | B6 z2 |[M:3/4] G6 |] %19
V:2
 z8 | z [G,B,][G,C][G,C] .[G,B,]2 z2 | z G,[F,A,][F,A,] .G,2 z2 | %3
 z [C,G,][C,E,][C,F,] .[C,G,]2 z2 | z [G,D][G,D][G,D] .[G,B,]2 z2 | %5
 z[K:treble] [G,B,][G,C][G,C] [G,B,]=FGF | E6[K:bass] z2 | z4 z2 z/[K:treble] F3/2 | %8
[M:3/4] [B,D]D CC B,2 |[M:1/4] [G,B,G]2 |[M:4/4][K:bass] [D,C]>[D,C] [D,C]D, D,2 [D,C]2 | %11
[M:3/4][K:treble] [G,B,G]>[G,B,D] D-[G,D-] [G,D]2 |[M:1/4][K:bass] [G,B,D]2 | %13
[M:4/4] [B,,B,]>[B,,B,] [B,,B,]B,, B,,B,,E,[C,F,] | %14
[M:17/16] F,/-F,/-F,/-F,/-F,/-F,/-F,/-F,-<F, z/ z/ z/ z/ z | %15
[M:4/4] z[K:treble] [G,B,][G,C][G,C] [G,B,]=FGF | E6[K:bass] z2 | D4 z4 |[M:3/4] .[B,D]2 z2 z2 |] %19
V:3
 x8 | z DE^D =DB_B=B | D6 z2 | z EGF EGAG | z GFG DDEF | G6 z2 | z G,DC G,GAG | z G,A,G, GD.[FB]C | %8
[M:3/4] z F E^D =D2 |[M:1/4] x2 |[M:4/4] z2 [DF]4 z2 |[M:3/4] d>G z B, B,2 |[M:1/4] x2 | %13
[M:4/4] [^DB]>[DF] z B, B,[B,DF][B,EG][EA] |[M:17/16] x17/2 |[M:4/4] G6 z2 | z G,DC G,GAG | %17
 z G,A,G, GD [FB]<[FA] |[M:3/4] z F E^D =D2 |] %19
V:4
 x8 | x8 | x8 | x8 | x8 | x[K:treble] x7 | z[K:bass] C,C,C, C,E^DD | D4 z2 .[D,C]2[K:treble] | %8
[M:3/4] G,6 |[M:1/4] x2 |[M:4/4][K:bass] x8 |[M:3/4][K:treble] z2 .[G,B,]2 z2 |[M:1/4][K:bass] x2 | %13
[M:4/4] x8 |[M:17/16] B,,/-B,,/-B,,/-B,,/-B,,-<B,,A,,3/2 z/ z/ z/ z/ z |[M:4/4] x[K:treble] x7 | %16
 z[K:bass] C,C,C, D,E^DD | z D,D,D, [D,B,][D,B,] [D,C]<[D,C] | %18
[M:3/4] G,-[G,-D] [G,-C][G,-B,] [G,_B,]2 |] %19
V:5
 x8 | x8 | x8 | x8 | x8 | x[K:treble] x7 | x[K:bass] x7 | z D,D,D, [D,B,][D,B,] z[K:treble] D, | %8
[M:3/4] x6 |[M:1/4] x2 |[M:4/4][K:bass] x8 |[M:3/4][K:treble] x6 |[M:1/4][K:bass] x2 |[M:4/4] x8 | %14
[M:17/16] x17/2 |[M:4/4] x[K:treble] x7 | x[K:bass] x7 | x8 |[M:3/4] x6 |] %19

